static/i/inngest-light.svg

<svg width="360" height="360" viewBox="0 0 360 360" fill="none" xmlns="http://www.w3.org/2000/svg">
<path d="M171.733 3.86668C164.267 6.26669 38.9334 82.6667 34.9334 87.3334C32.6668 89.8667 30.1334 94.1334 29.4668 96.9334C27.3334 104.4 27.4668 254.667 29.6001 261.6C30.4001 264.533 33.3334 269.2 35.8668 272C38.9334 275.2 64.0001 291.067 105.467 315.867C180 360.533 177.6 359.6 192.267 352.133C196.933 349.867 228.267 331.333 262 310.933C320.267 275.733 323.467 273.733 327.333 267.467L331.333 260.933V179.467C331.333 98.6667 331.333 98 328.4 92.6667C326.933 89.7334 324.133 86.1334 322.4 84.5334C320.8 82.9334 290 64.1334 254.267 42.8C194.8 7.20002 188.667 3.73335 182.267 3.33335C178.4 2.93335 173.733 3.20002 171.733 3.86668ZM268.267 132.267C275.867 136 280.533 144 280.667 153.2C280.667 166.133 273.6 175.333 261.067 178.8C250.267 181.6 236 174 231.867 163.067C228.4 153.867 232 140.933 240 134.133C243.867 130.933 245.333 130.4 252.667 128.933C256.667 128.133 262.8 129.467 268.267 132.267ZM192.267 157.6C205.333 164.133 208.933 181.867 199.733 195.067C194.8 202 182.8 206.133 174 203.867C153.6 198.533 148 173.067 164 159.467C166.267 157.6 169.867 155.6 171.733 155.2C173.733 154.8 176 154.267 176.667 154C179.2 153.2 187.333 155.067 192.267 157.6ZM116.133 182.8C129.067 189.333 133.2 206.133 124.8 218.667C111.333 239.067 78.6668 229.2 78.6668 204.667C78.6668 194.267 87.0668 182.4 95.7335 180.533C97.7335 180.133 100 179.6 100.667 179.333C103.067 178.4 111.2 180.133 116.133 182.8Z" fill="white"/>
</svg>

<svg xmlns="http://www.w3.org/2000/svg" width="360" height="360" fill="none"><path fill="#fff" d="M171.733 3.867c-7.466 2.4-132.8 78.8-136.8 83.466-2.266 2.534-4.8 6.8-5.466 9.6-2.134 7.467-2 157.734.133 164.667.8 2.933 3.733 7.6 6.267 10.4 3.066 3.2 28.133 19.067 69.6 43.867 74.533 44.666 72.133 43.733 86.8 36.266 4.666-2.266 36-20.8 69.733-41.2 58.267-35.2 61.467-37.2 65.333-43.466l4-6.534v-81.466c0-80.8 0-81.467-2.933-86.8-1.467-2.934-4.267-6.534-6-8.134-1.6-1.6-32.4-20.4-68.133-41.733-59.467-35.6-65.6-39.067-72-39.467-3.867-.4-8.534-.133-10.534.534Zm96.534 128.4c7.6 3.733 12.266 11.733 12.4 20.933 0 12.933-7.067 22.133-19.6 25.6-10.8 2.8-25.067-4.8-29.2-15.733-3.467-9.2.133-22.134 8.133-28.934 3.867-3.2 5.333-3.733 12.667-5.2 4-.8 10.133.534 15.6 3.334Zm-76 25.333c13.066 6.533 16.666 24.267 7.466 37.467C194.8 202 182.8 206.133 174 203.867c-20.4-5.334-26-30.8-10-44.4 2.267-1.867 5.867-3.867 7.733-4.267 2-.4 4.267-.933 4.934-1.2 2.533-.8 10.666 1.067 15.6 3.6Zm-76.134 25.2c12.934 6.533 17.067 23.333 8.667 35.867-13.467 20.4-46.133 10.533-46.133-14 0-10.4 8.4-22.267 17.067-24.134 2-.4 4.266-.933 4.933-1.2 2.4-.933 10.533.8 15.466 3.467Z"/></svg>
